app/images/icons/warranty.svg

<svg width="14" height="20" viewBox="0 0 14 20" fill="none" xmlns="http://www.w3.org/2000/svg">
<path d="M0.44043 20V17.396C1.6351 16.4066 2.79709 15.4266 3.92643 14.456C5.05577 13.4853 6.06376 12.524 6.95043 11.572C7.8371 10.62 8.54643 9.6913 9.07843 8.78596C9.61043 7.88063 9.87643 6.99864 9.87643 6.13997C9.87643 5.33729 9.6571 4.62797 9.21843 4.01196C8.77976 3.39596 8.05643 3.08796 7.04843 3.08796C6.02176 3.08796 5.2471 3.42396 4.72443 4.09596C4.20176 4.76797 3.94043 5.57996 3.94043 6.53196H0.46843C0.505763 5.09462 0.823093 3.8953 1.42043 2.93396C2.01777 1.97263 2.81109 1.25397 3.80043 0.777965C4.78977 0.301962 5.90042 0.0639648 7.13243 0.0639648C9.12977 0.0639648 10.6838 0.609959 11.7944 1.70196C12.9051 2.79397 13.4604 4.20796 13.4604 5.94396C13.4604 7.02664 13.2131 8.08129 12.7184 9.10796C12.2238 10.1346 11.5751 11.124 10.7724 12.076C9.96976 13.028 9.10177 13.9193 8.16843 14.75C7.23509 15.5806 6.32977 16.3506 5.45243 17.06H13.9364V20H0.44043Z" fill="#262626"/>
</svg>

<svg width="14" height="20" fill="none" xmlns="http://www.w3.org/2000/svg"><path d="M.44 20v-2.604c1.195-.99 2.357-1.97 3.486-2.94a37.795 37.795 0 003.024-2.884c.887-.952 1.596-1.88 2.128-2.786.532-.905.798-1.787.798-2.646 0-.803-.219-1.512-.658-2.128-.438-.616-1.162-.924-2.17-.924-1.026 0-1.8.336-2.324 1.008-.522.672-.784 1.484-.784 2.436H.468c.038-1.437.355-2.637.952-3.598A5.635 5.635 0 013.8.778C4.79.302 5.9.064 7.132.064c1.998 0 3.552.546 4.662 1.638 1.111 1.092 1.666 2.506 1.666 4.242a7.212 7.212 0 01-.742 3.164 14.111 14.111 0 01-1.946 2.968 26.083 26.083 0 01-2.604 2.674c-.933.83-1.838 1.6-2.716 2.31h8.484V20H.44z" fill="#262626"/></svg>
